X:81
T: Der heimkehrende Braeutigam
N: Q1102I
O: Mitteleuropa, Deutschland (BRD) , Rheinland
N: Melodievergleich zu Q0102F, anderes Lied.
R: geistlich
M: 6/8
L: 1/8
K: G
d | dBBBcd | d2ec2
c | d2dd2c | B3z2
d | dBBBcd | d2ec2
c | d2dd2c | B3z2

@@@ Tune index: 1374
